src/icons/add-key.svg

<svg xmlns="http://www.w3.org/2000/svg"  viewBox="0 0 50 50" width="32px" height="32px"><path d="M 34 0 C 25.179688 0 18 7.179688 18 16 C 18 24.820313 25.179688 32 34 32 C 31.570313 33.828125 30 36.742188 30 40 C 30 45.5 34.5 50 40 50 C 45.5 50 50 45.5 50 40 C 50 35 46.277344 30.839844 41.46875 30.125 C 46.535156 27.4375 50 22.125 50 16 C 50 7.179688 42.820313 0 34 0 Z M 34 6 C 36.558594 6 39.109375 6.984375 41.0625 8.9375 C 44.96875 12.839844 44.96875 19.160156 41.0625 23.0625 L 26.9375 8.9375 C 28.890625 6.984375 31.441406 6 34 6 Z M 17.46875 23.125 L 0 40.59375 L 0 46.59375 L 16.875 29.71875 C 17.265625 29.328125 17.890625 29.328125 18.28125 29.71875 C 18.671875 30.109375 18.671875 30.734375 18.28125 31.125 L 1 48.40625 L 2.59375 50 L 9.40625 50 L 13 46.40625 L 13 44 L 15.40625 44 L 19 40.40625 L 19 39 L 20.40625 39 L 23 36.40625 L 23 35 L 24.40625 35 L 26.875 32.53125 C 22.664063 30.710938 19.289063 27.335938 17.46875 23.125 Z M 40 32 C 44.398438 32 48 35.601563 48 40 C 48 44.398438 44.398438 48 40 48 C 35.601563 48 32 44.398438 32 40 C 32 35.601563 35.601563 32 40 32 Z M 40 34.09375 C 39.398438 34.09375 39 34.492188 39 35.09375 L 39 39 L 35.09375 39 C 34.492188 39 34.09375 39.398438 34.09375 40 C 34.09375 40.601563 34.492188 41 35.09375 41 L 39 41 L 39 44.90625 C 39 45.507813 39.398438 45.90625 40 45.90625 C 40.601563 45.90625 41 45.507813 41 44.90625 L 41 41 L 44.90625 41 C 45.507813 41 45.90625 40.601563 45.90625 40 C 45.90625 39.398438 45.507813 39 44.90625 39 L 41 39 L 41 35.09375 C 41 34.492188 40.601563 34.09375 40 34.09375 Z"/></svg>

<svg role="img" viewBox="0 0 50 50" xmlns="http://www.w3.org/2000/svg"><path d="M34 0c-8.82 0-16 7.18-16 16s7.18 16 16 16c-2.43 1.828-4 4.742-4 8 0 5.5 4.5 10 10 10s10-4.5 10-10c0-5-3.723-9.16-8.531-9.875C46.535 27.438 50 22.125 50 16c0-8.82-7.18-16-16-16m0 6c2.559 0 5.11.984 7.063 2.938a9.978 9.978 0 0 1 0 14.125L26.937 8.938A9.958 9.958 0 0 1 34 6M17.469 23.125 0 40.594v6l16.875-16.875a.99.99 0 0 1 1.406 0 .99.99 0 0 1 0 1.406L1 48.406 2.594 50h6.812L13 46.406V44h2.406L19 40.406V39h1.406L23 36.406V35h1.406l2.469-2.469a18.08 18.08 0 0 1-9.406-9.406M40 32c4.398 0 8 3.602 8 8s-3.602 8-8 8-8-3.602-8-8 3.602-8 8-8m0 2.094c-.602 0-1 .398-1 1V39h-3.906c-.602 0-1 .398-1 1s.398 1 1 1H39v3.906c0 .602.398 1 1 1s1-.398 1-1V41h3.906c.602 0 1-.398 1-1s-.398-1-1-1H41v-3.906c0-.602-.398-1-1-1"/></svg>
